src/ui/media-playback-rate-symbolic.svg

<?xml version="1.0" encoding="UTF-8" standalone="no"?>
<!-- Created with Inkscape (http://www.inkscape.org/) -->

<svg
   xmlns:dc="http://purl.org/dc/elements/1.1/"
   xmlns:cc="http://creativecommons.org/ns#"
   xmlns:rdf="http://www.w3.org/1999/02/22-rdf-syntax-ns#"
   xmlns:svg="http://www.w3.org/2000/svg"
   xmlns="http://www.w3.org/2000/svg"
   xmlns:sodipodi="http://sodipodi.sourceforge.net/DTD/sodipodi-0.dtd"
   xmlns:inkscape="http://www.inkscape.org/namespaces/inkscape"
   sodipodi:docname="media-playback-rate-symbolic.svg"
   inkscape:export-filename="/home/sam/dev/RESOURCES/gnome-icon-theme-symbolic/src/gnome-stencils.png"
   inkscape:export-xdpi="90"
   inkscape:export-ydpi="90"
   height="16"
   id="svg7384"
   version="1.1"
   inkscape:version="0.92.2 (5c3e80d, 2017-08-06)"
   width="16">
  <metadata
     id="metadata90">
    <rdf:RDF>
      <cc:Work
         rdf:about="">
        <dc:format>image/svg+xml</dc:format>
        <dc:type
           rdf:resource="http://purl.org/dc/dcmitype/StillImage" />
        <dc:title>Gnome Symbolic Icon Theme</dc:title>
      </cc:Work>
    </rdf:RDF>
  </metadata>
  <sodipodi:namedview
     inkscape:bbox-nodes="false"
     inkscape:bbox-paths="true"
     bordercolor="#666666"
     borderopacity="1"
     inkscape:current-layer="layer14"
     inkscape:cx="8.2830444"
     inkscape:cy="6.825257"
     gridtolerance="10"
     inkscape:guide-bbox="true"
     guidetolerance="10"
     id="namedview88"
     inkscape:object-nodes="false"
     inkscape:object-paths="false"
     objecttolerance="10"
     pagecolor="#3a3b39"
     inkscape:pageopacity="1"
     inkscape:pageshadow="2"
     showborder="false"
     showgrid="true"
     showguides="false"
     inkscape:snap-bbox="true"
     inkscape:snap-bbox-midpoints="false"
     inkscape:snap-global="true"
     inkscape:snap-grids="true"
     inkscape:snap-nodes="true"
     inkscape:snap-others="false"
     inkscape:snap-to-guides="true"
     inkscape:window-height="953"
     inkscape:window-maximized="1"
     inkscape:window-width="1680"
     inkscape:window-x="0"
     inkscape:window-y="27"
     inkscape:zoom="51.022657">
    <inkscape:grid
       dotted="false"
       empspacing="2"
       enabled="true"
       id="grid4866"
       originx="-380.03125"
       originy="84.03125"
       snapvisiblegridlinesonly="true"
       spacingx="1"
       spacingy="1"
       type="xygrid"
       visible="true" />
  </sodipodi:namedview>
  <title
     id="title9167">Gnome Symbolic Icon Theme</title>
  <defs
     id="defs7386" />
  <g
     inkscape:groupmode="layer"
     id="layer9"
     inkscape:label="status"
     style="display:inline"
     transform="translate(-621.03145,-301.03125)" />
  <g
     inkscape:groupmode="layer"
     id="layer10"
     inkscape:label="devices"
     style="display:inline"
     transform="translate(-621.03145,-301.03125)" />
  <g
     inkscape:groupmode="layer"
     id="layer11"
     inkscape:label="apps"
     transform="translate(-621.03145,-301.03125)" />
  <g
     inkscape:groupmode="layer"
     id="layer13"
     inkscape:label="places"
     style="display:inline"
     transform="translate(-621.03145,-301.03125)" />
  <g
     inkscape:groupmode="layer"
     id="layer14"
     inkscape:label="mimetypes"
     transform="translate(-621.03145,-301.03125)">
    <path
       style="opacity:1;fill:#bebebe;fill-opacity:1;stroke:none;stroke-width:1.232126;stroke-miterlimit:4;stroke-dasharray:none;stroke-opacity:0.5"
       d="M 7.96875 2.9882812 A 8 8 0 0 0 -0.03125 10.988281 A 8 8 0 0 0 0.234375 12.988281 L 2.3183594 12.988281 A 6 6 0 0 1 1.96875 10.988281 A 6 6 0 0 1 7.96875 4.9882812 A 6 6 0 0 1 9.859375 5.3007812 L 11.695312 3.9238281 A 8 8 0 0 0 7.96875 2.9882812 z M 15.019531 7.234375 L 13.642578 9.0703125 A 6 6 0 0 1 13.96875 10.988281 A 6 6 0 0 1 13.617188 12.988281 L 15.708984 12.988281 A 8 8 0 0 0 15.96875 10.988281 A 8 8 0 0 0 15.019531 7.234375 z "
       transform="translate(621.03145,301.03125)"
       id="path852" />
    <path
       style="opacity:1;fill:#bebebe;fill-opacity:1;stroke:none;stroke-width:1.232126;stroke-miterlimit:4;stroke-dasharray:none;stroke-opacity:0.5"
       d="m 637.0002,304.01915 c -3.09873,2.16788 -6.17712,4.27023 -9.26172,6.45508 -0.47646,0.32471 -0.73749,0.96525 -0.73828,1.54492 0,1.10457 0.89543,2 2,2 0.84397,-9.3e-4 1.48714,-0.57452 1.92383,-1.29102 z"
       id="path857"
       inkscape:connector-curvature="0"
       sodipodi:nodetypes="cccccc" />
  </g>
  <g
     inkscape:groupmode="layer"
     id="layer15"
     inkscape:label="emblems"
     style="display:inline"
     transform="translate(-621.03145,-301.03125)" />
  <g
     inkscape:groupmode="layer"
     id="g71291"
     inkscape:label="emotes"
     style="display:inline"
     transform="translate(-621.03145,-301.03125)" />
  <g
     inkscape:groupmode="layer"
     id="g4953"
     inkscape:label="categories"
     style="display:inline"
     transform="translate(-621.03145,-301.03125)" />
  <g
     inkscape:groupmode="layer"
     id="layer12"
     inkscape:label="actions"
     style="display:inline"
     transform="translate(-621.03145,-301.03125)" />
</svg>

<?xml version="1.0" encoding="UTF-8"?>
<svg version="1.1" viewBox="0 0 16 16" xmlns="http://www.w3.org/2000/svg" xmlns:cc="http://creativecommons.org/ns#" xmlns:dc="http://purl.org/dc/elements/1.1/" xmlns:rdf="http://www.w3.org/1999/02/22-rdf-syntax-ns#">
<metadata>
<rdf:RDF>
<cc:Work rdf:about="">
<dc:format>image/svg+xml</dc:format>
<dc:type rdf:resource="http://purl.org/dc/dcmitype/StillImage"/>
<dc:title>Gnome Symbolic Icon Theme</dc:title>
</cc:Work>
</rdf:RDF>
</metadata>
<title>Gnome Symbolic Icon Theme</title>
<g transform="translate(-621.03 -301.03)" fill="#bebebe">
<path transform="translate(621.03 301.03)" d="m7.9688 2.9883a8 8 0 0 0 -8 8 8 8 0 0 0 0.26562 2h2.084a6 6 0 0 1 -0.34961 -2 6 6 0 0 1 6 -6 6 6 0 0 1 1.8906 0.3125l1.8359-1.377a8 8 0 0 0 -3.7266 -0.93555zm7.0508 4.2461l-1.377 1.8359a6 6 0 0 1 0.32617 1.918 6 6 0 0 1 -0.35156 2h2.0918a8 8 0 0 0 0.25977 -2 8 8 0 0 0 -0.94922 -3.7539z"/>
<path d="m637 304.02c-3.0987 2.1679-6.1771 4.2702-9.2617 6.4551-0.47646 0.32471-0.73749 0.96525-0.73828 1.5449 0 1.1046 0.89543 2 2 2 0.84397-9.3e-4 1.4871-0.57452 1.9238-1.291z"/>
</g>
</svg>
